src/static/images/b1.svg

<svg width="156" height="30" viewBox="0 0 156 30" version="1.1" xmlns="http://www.w3.org/2000/svg" xmlns:xlink="http://www.w3.org/1999/xlink">
<title>b1</title>
<desc>Created using Figma</desc>
<g id="Canvas" transform="translate(527 396)">
<g id="b1">
<g id="Group">
<g id="Vector">
<use xlink:href="#path0_fill" transform="translate(-527 -396)" fill="#BDBDBD"/>
</g>
<g id="Vector">
<use xlink:href="#path1_fill" transform="translate(-507.769 -384.654)" fill="#BDBDBD"/>
</g>
<g id="Vector">
<use xlink:href="#path2_fill" transform="translate(-493.587 -384.269)" fill="#BDBDBD"/>
</g>
<g id="Vector">
<use xlink:href="#path3_fill" transform="translate(-476.856 -384.462)" fill="#BDBDBD"/>
</g>
<g id="Vector">
<use xlink:href="#path4_fill" transform="translate(-455.365 -396)" fill="#BDBDBD"/>
</g>
<g id="Vector">
<use xlink:href="#path5_fill" transform="translate(-430.846 -383.981)" fill="#BDBDBD"/>
</g>
<g id="Vector">
<use xlink:href="#path6_fill" transform="translate(-414.452 -393.981)" fill="#BDBDBD"/>
</g>
<g id="Vector">
<use xlink:href="#path7_fill" transform="translate(-405.029 -384.462)" fill="#BDBDBD"/>
</g>
<g id="Vector">
<use xlink:href="#path8_fill" transform="translate(-383.298 -384.221)" fill="#BDBDBD"/>
</g>
</g>
</g>
</g>
<defs>
<path id="path0_fill" d="M 5.09615 0.192308L 5.09615 14.6154C 6.92308 13.1731 8.65385 11.9712 11.1058 11.9712C 11.9231 11.9712 13.5577 12.1635 15.1923 13.6058C 17.5962 15.7692 17.7885 18.7981 17.7885 19.8077C 17.7885 21.4904 17.3077 22.8365 17.1154 23.4135C 15.6731 27.1635 12.4519 29.7596 8.31731 29.7596C 6.58654 29.7596 4.95192 29.1827 3.31731 28.6058L 1.92308 29.3269C 1.68269 29.2308 1.63462 29.1827 1.63462 28.9904C 1.73077 27.5481 1.92308 26.1058 1.92308 24.6635C 2.01923 23.6538 2.01923 22.6442 2.01923 21.6827L 2.01923 5.43269C 2.01923 3.46154 1.77885 3.17308 0 2.5L 0 2.01923C 2.06731 1.34615 2.93269 1.00962 4.80769 1.4328e-09L 5.09615 0.192308ZM 4.90385 23.9423C 5 25 5.04808 26.0096 5.57692 26.875C 6.00962 27.5 7.06731 28.7019 9.03846 28.7019C 9.47115 28.7019 10.2885 28.6538 11.2981 28.125C 13.6058 26.9231 14.6154 24.375 14.6635 21.875C 14.6635 20.8654 14.4712 17.3558 11.8269 15.2404C 11.3942 14.9519 10.1442 13.9904 8.50962 13.9904C 7.21154 13.9904 6.10577 14.7596 4.90385 15.625C 4.90385 15.625 4.90385 23.9423 4.90385 23.9423Z"/>
<path id="path1_fill" d="M 2.98077 5.38462C 2.93269 4.23077 2.88462 3.75 0.961538 3.125L 0.961538 2.5C 3.17308 1.58654 3.75 1.25 5.76923 -3.66798e-07L 6.05769 0.240384L 6.05769 4.32692C 6.49038 3.75 6.92308 3.22115 7.35577 2.69231C 7.59615 2.40385 9.18269 0.480769 11.1058 0.528846C 11.5865 0.528846 13.3173 0.721153 13.3173 2.40385C 13.2692 3.50961 12.4519 4.42308 11.3942 4.42308C 10.8173 4.42308 10.7212 4.13461 10.2404 3.84615C 10.0481 3.75 9.61538 3.50962 9.03846 3.50962C 8.50961 3.50962 7.35577 3.70192 6.58654 4.95192C 5.96154 5.91346 5.96154 6.92308 5.96154 7.98077L 5.96154 14.2308C 5.96154 14.4231 5.81731 16.25 7.11538 16.6827C 7.59615 16.875 8.70192 16.9231 10.0962 16.9712L 10.0962 17.9808L 0 17.9808L 0 17.0192C 2.30769 16.9231 2.93269 16.5865 2.98077 14.1827L 2.98077 5.38462Z"/>
<path id="path2_fill" d="M 10 8.125L 10 5.28846C 10 4.85577 10 4.61538 9.90385 4.23077C 9.51923 2.78846 8.125 1.92308 6.63462 1.92308C 6.10577 1.92308 4.23077 2.11538 3.65385 3.79808C 3.36538 4.80769 3.55769 5.48077 2.59615 5.91346C 2.30769 6.00962 1.73077 6.20192 1.44231 6.20192C 0.961538 6.20192 0.76923 5.91346 0.76923 5.38461C 0.76923 5 0.961539 4.13462 1.63462 3.36538C 2.25962 2.69231 3.22115 2.16346 5 1.20192L 6.63462 0.432692C 6.875 0.336538 7.69231 1.83399e-07 8.46154 1.83399e-07C 9.23077 1.83399e-07 10.7212 0.432692 11.4423 0.865384C 13.0288 1.77885 13.0288 3.46154 13.0769 4.03846L 13.0769 13.8942C 13.0769 14.4231 13.0769 14.6154 13.1731 14.8558C 13.2692 15.2885 13.5577 16.0096 14.7596 16.0096C 15.0962 16.0096 15.4327 15.9135 16.0577 15.7212L 16.1538 16.2019C 15.1442 16.9712 13.8462 18.0288 12.4519 18.0288C 11.8269 18.0288 11.3462 17.7404 11.1538 17.5962C 10.2885 16.9712 10.0962 16.2019 9.90385 15.1923C 9.75961 15.3365 9.56731 15.4808 9.42308 15.6731C 8.79808 16.1538 6.68269 18.0288 3.94231 18.0288C 3.65384 18.0288 3.02885 17.9808 2.35577 17.7404C 1.00962 17.2115 6.83214e-15 15.6731 6.83214e-15 14.2308C 6.83214e-15 13.5577 0.288462 12.8846 0.673078 12.3077C 1.53846 11.1538 2.88462 10.6731 5.67308 9.51923L 10 8.125ZM 10 9.03846L 7.16346 9.90385C 5.86539 10.3846 4.56731 10.7692 3.70192 11.875C 3.50961 12.0673 3.02885 12.6442 3.02885 13.4615C 3.02885 13.6058 3.07692 14.0385 3.26923 14.4712C 3.75 15.5769 4.95192 16.25 6.15385 16.25C 6.34616 16.25 6.77885 16.25 7.21154 16.0577C 7.93269 15.7692 8.70192 15.0962 10 13.9904L 10 9.03846L 10 9.03846Z"/>
<path id="path3_fill" d="M 2.64423 5C 2.40385 3.31731 2.11538 3.02885 0.576923 2.40385L 0.576923 1.82692C 3.31731 0.961538 3.89423 0.625 5.33654 3.66798e-07L 5.72115 0.144231L 5.72115 3.125C 7.74038 1.82692 10.0962 0.336538 12.6923 0.336538C 13.9904 0.336538 15.2885 0.769231 16.0577 1.92308C 16.8269 3.02885 16.875 4.32692 16.9231 5.625L 16.9231 15.3365C 17.0192 16.7788 17.2115 16.6827 19.375 16.9231L 19.375 17.7885L 11.2019 17.7885L 11.2019 16.875C 13.8462 16.6346 13.6058 16.7788 13.7981 14.1346L 13.7981 6.34615C 13.7981 6.10577 13.75 5.14423 13.5096 4.47115C 13.0288 3.125 11.7308 2.35577 10.2885 2.35577C 8.50961 2.35577 7.06731 3.31731 5.67308 4.18269L 5.67308 14.6635C 5.67308 15.8654 5.76923 16.2981 6.34615 16.5385C 6.68269 16.6827 7.98077 16.8269 8.41346 16.875L 8.41346 17.7404L 1.46719e-06 17.7404L 1.46719e-06 16.8269C 0.480771 16.7788 0.96154 16.7308 1.44231 16.6827C 2.40385 16.5385 2.54808 16.2019 2.59615 14.5673L 2.64423 5Z"/>
<path id="path4_fill" d="M 13.0769 5.04808C 13.0769 4.95192 13.125 4.56731 12.9808 4.23077C 12.6923 3.125 11.4423 2.74038 10.5288 2.45192L 10.5288 1.82692C 12.9808 1.25 13.6058 1.05769 15.9615 1.4328e-09L 16.2019 0.288462L 16.2019 26.4423C 16.2981 27.7404 16.5385 27.7404 17.2596 27.7404L 18.8462 27.7404L 18.8462 28.5096C 17.8365 28.7019 16.8269 28.9423 15.8654 29.1827C 15.0481 29.4231 14.2308 29.6635 13.4135 29.9038L 13.125 29.7115L 13.125 27.0192C 12.7404 27.3558 12.3558 27.6923 11.9712 27.9808C 11.2981 28.4615 9.56731 29.8077 7.06731 29.8077C 5.38461 29.8077 4.03846 29.1346 3.55769 28.7981C 0.240382 26.7788 -1.36643e-14 22.8846 -1.36643e-14 21.7788C -1.36643e-14 20.2885 0.288459 18.8942 0.913459 17.5962C 2.45192 14.3269 6.00961 11.9712 9.71154 11.9712C 11.1058 11.9712 11.7788 12.2115 13.0288 12.6442L 13.0288 5.04808L 13.0769 5.04808ZM 13.2212 15.9615C 13.0769 15.6731 12.9327 15.4327 12.7404 15.1923C 12.3558 14.4712 11.4423 13.0288 9.08654 13.0288C 8.60577 13.0769 7.64423 13.125 6.63462 13.7019C 5.33654 14.4231 3.26923 16.3462 3.26923 20.1442C 3.26923 23.7981 5.09616 25.7692 6.29808 26.5865C 7.59616 27.5 8.70192 27.6442 9.32692 27.6442C 10.625 27.6442 12.3077 27.0673 12.8846 25.7692C 13.0769 25.4327 13.1731 25.0481 13.1731 24.1827L 13.1731 15.9615L 13.2212 15.9615Z"/>
<path id="path5_fill" d="M 3.125 6.68269L 3.125 7.93269C 3.26923 9.61538 3.41346 10.4327 3.65385 11.2019C 3.99039 12.2596 5.33654 15.625 9.08654 15.625C 11.25 15.625 12.6442 14.4712 14.1827 13.125L 14.5673 13.7981C 13.3173 15.2404 12.7404 15.8173 11.9712 16.4423C 11.2981 16.9231 9.75962 17.9808 7.35577 17.9808C 4.47116 17.9808 2.78846 16.4904 2.11538 15.7212C 0.144228 13.5096 0 9.95192 0 9.27885C 0 7.98077 0.336538 3.26923 4.32692 1.05769C 6.05769 0.144231 7.69231 3.66798e-07 8.41346 3.66798e-07C 9.03846 3.66798e-07 10.7212 0.0480771 12.1635 1.15385C 13.8942 2.5 14.2788 4.23077 14.375 4.90385C 14.4231 5.04808 14.4712 5.67308 14.4712 5.86539C 14.4712 5.91346 14.4712 6.49038 14.1346 6.63462C 13.9904 6.73077 13.7019 6.73077 13.6538 6.73077L 3.125 6.68269ZM 10.0481 5.57692C 10.9135 5.48077 11.2981 5.33654 11.2981 4.47115C 11.2981 2.59615 9.80769 0.961539 7.88461 0.961539C 7.40384 0.961539 6.63461 1.05769 5.72115 1.63462C 4.18269 2.54808 3.70193 3.99038 3.17308 5.57692L 10.0481 5.57692Z"/>
<path id="path6_fill" d="M 2.78846 14.6154C 2.6923 13.8462 2.64423 13.2212 2.11538 12.7404C 1.82692 12.4519 1.44231 12.2115 0.673077 11.7788L 0.673077 11.25C 3.02885 10.5769 3.46154 10.3846 5.57692 9.375L 5.86539 9.61538L 5.86539 24.2788C 5.86539 24.4712 5.67308 25.8173 6.53846 26.2019C 6.82692 26.2981 7.54808 26.3942 8.50962 26.4904L 8.50962 27.3558L 2.93438e-06 27.3558L 0.0480755 26.4904C 1.05769 26.3942 1.875 26.3942 2.16346 26.2019C 2.74039 25.9135 2.78846 25.0481 2.78846 24.4712L 2.78846 14.6154ZM 4.47115 4.58497e-08C 5.48077 4.58497e-08 6.29808 0.817308 6.29808 1.82692C 6.29808 2.88462 5.33654 3.60577 4.32693 3.60577C 3.99039 3.60577 3.75 3.55769 3.46154 3.36538C 2.83654 2.98077 2.5 2.11538 2.69231 1.34615C 2.88461 0.480769 3.55769 4.58497e-08 4.47115 4.58497e-08Z"/>
<path id="path7_fill" d="M 2.64424 5C 2.40385 3.31731 2.11538 3.02885 0.57692 2.40385L 0.57692 1.82692C 3.3173 0.961538 3.89423 0.625 5.33653 3.66798e-07L 5.72116 0.144231L 5.72116 3.125C 7.74039 1.82692 10.0962 0.336538 12.6923 0.336538C 13.9904 0.336538 15.2885 0.769231 16.0577 1.92308C 16.8269 3.02885 16.875 4.32692 16.9231 5.625L 16.9231 15.3365C 17.0192 16.7788 17.2115 16.6827 19.375 16.9231L 19.375 17.7885L 11.2019 17.7885L 11.2019 16.875C 13.8462 16.6346 13.6058 16.7788 13.7981 14.1346L 13.7981 6.34615C 13.7981 6.10577 13.75 5.14423 13.5096 4.47115C 13.0288 3.125 11.7308 2.35577 10.2885 2.35577C 8.50962 2.35577 7.06731 3.31731 5.67308 4.18269L 5.67308 14.6635C 5.67308 15.8654 5.76923 16.2981 6.34615 16.5385C 6.68269 16.6827 7.98077 16.8269 8.41347 16.875L 8.41347 17.7404L -1.46719e-06 17.7404L -1.46719e-06 16.8269C 0.480768 16.7788 0.961544 16.7308 1.44231 16.6827C 2.40385 16.5385 2.54808 16.2019 2.59616 14.5673L 2.59616 5L 2.64424 5Z"/>
<path id="path8_fill" d="M 10.8654 5L 10.1923 4.95192C 10.0962 4.61538 10 4.23077 9.90385 3.89423C 9.75962 3.41346 9.27885 2.25961 8.02885 1.49038C 7.16346 1.00961 6.39423 1.00961 6.00961 1.00961C 5.86538 1.00961 5.33654 1.00962 4.85577 1.20192C 3.79808 1.58654 2.98077 2.64423 2.98077 3.70192C 3.02885 4.90385 3.84616 5.72115 4.1827 5.96154C 5.14423 6.875 6.20193 7.21154 7.35578 7.69231C 8.02885 7.98077 8.55769 8.22115 9.18269 8.60577C 9.90385 9.08654 11.7308 10.3846 11.7308 12.9327C 11.7308 13.3173 11.6827 14.1346 11.25 15C 10.625 16.2019 8.75001 18.125 5.19231 18.125C 3.17308 18.125 2.01924 17.6442 0.384621 16.6827L -2.93438e-06 12.2596L 0.673071 12.1154C 1.15384 13.7981 1.73077 15.5288 3.41346 16.4423C 4.375 16.9712 5.24039 17.0192 5.625 17.0192C 7.25962 17.0192 8.07692 16.1058 8.41346 15.5288C 8.50961 15.3365 8.79808 14.7596 8.79808 14.0385C 8.79808 13.9423 8.74999 13.3654 8.60576 12.9327C 8.12499 11.6827 6.97115 11.1538 5.81731 10.625C 5.43269 10.4327 4.375 10.0481 3.36538 9.375C 2.6923 8.99038 0.480766 7.59615 0.480766 5C 0.480766 3.60577 1.10578 2.21154 2.06731 1.39423C 3.65385 0.0480771 6.00962 3.66798e-07 6.58654 3.66798e-07C 7.83654 3.66798e-07 8.75001 0.192308 10.9615 0.913462L 10.9615 5L 10.8654 5L 10.8654 5Z"/>
</defs>
</svg>

<svg width="156" height="30" viewBox="0 0 156 30" xmlns="http://www.w3.org/2000/svg" xmlns:xlink="http://www.w3.org/1999/xlink"><title>b1</title><desc>Created using Figma</desc><use xlink:href="#a" fill="#BDBDBD"/><use xlink:href="#b" transform="translate(19.231 11.346)" fill="#BDBDBD"/><use xlink:href="#c" transform="translate(33.413 11.731)" fill="#BDBDBD"/><use xlink:href="#d" transform="translate(50.144 11.538)" fill="#BDBDBD"/><use xlink:href="#e" transform="translate(71.635)" fill="#BDBDBD"/><use xlink:href="#f" transform="translate(96.154 12.019)" fill="#BDBDBD"/><use xlink:href="#g" transform="translate(112.548 2.019)" fill="#BDBDBD"/><use xlink:href="#h" transform="translate(121.971 11.538)" fill="#BDBDBD"/><use xlink:href="#i" transform="translate(143.702 11.779)" fill="#BDBDBD"/><defs><path id="a" d="M5.096.192v14.423c1.827-1.442 3.558-2.644 6.01-2.644.817 0 2.452.193 4.086 1.635 2.404 2.163 2.596 5.192 2.596 6.202 0 1.682-.48 3.029-.673 3.605-1.442 3.75-4.663 6.347-8.798 6.347-1.73 0-3.365-.577-5-1.154l-1.394.72c-.24-.095-.288-.143-.288-.336.096-1.442.288-2.884.288-4.326.096-1.01.096-2.02.096-2.981V5.433C2.02 3.462 1.78 3.173 0 2.5v-.48C2.067 1.345 2.933 1.01 4.808 0l.288.192zm-.192 23.75C5 25 5.048 26.01 5.577 26.875c.433.625 1.49 1.827 3.461 1.827.433 0 1.25-.048 2.26-.577 2.308-1.202 3.317-3.75 3.366-6.25 0-1.01-.193-4.52-2.837-6.635-.433-.288-1.683-1.25-3.317-1.25-1.298 0-2.404.77-3.606 1.635v8.317z"/><path id="b" d="M2.98 5.385C2.934 4.23 2.886 3.75.963 3.125V2.5C3.173 1.587 3.75 1.25 5.769 0l.289.24v4.087c.432-.577.865-1.106 1.298-1.635.24-.288 1.827-2.211 3.75-2.163.48 0 2.211.192 2.211 1.875-.048 1.106-.865 2.02-1.923 2.02-.577 0-.673-.29-1.154-.578-.192-.096-.625-.336-1.202-.336-.528 0-1.682.192-2.451 1.442-.625.961-.625 1.971-.625 3.029v6.25c0 .192-.145 2.019 1.153 2.452.481.192 1.587.24 2.981.288v1.01H0v-.962c2.308-.096 2.933-.432 2.98-2.836V5.385z"/><path id="c" d="M10 8.125V5.288c0-.432 0-.673-.096-1.057-.385-1.443-1.779-2.308-3.27-2.308-.528 0-2.403.192-2.98 1.875-.289 1.01-.096 1.683-1.058 2.115-.288.097-.865.289-1.154.289-.48 0-.673-.289-.673-.817 0-.385.193-1.25.866-2.02C2.26 2.692 3.22 2.163 5 1.202l1.635-.77C6.875.338 7.692 0 8.462 0c.769 0 2.26.433 2.98.865 1.587.914 1.587 2.597 1.635 3.173v9.856c0 .53 0 .721.096.962.096.433.385 1.154 1.587 1.154.336 0 .673-.097 1.298-.289l.096.48c-1.01.77-2.308 1.828-3.702 1.828a2.245 2.245 0 0 1-1.298-.433c-.865-.625-1.058-1.394-1.25-2.404-.144.144-.337.289-.48.481-.626.48-2.741 2.356-5.482 2.356a4.99 4.99 0 0 1-1.586-.289C1.01 17.212 0 15.673 0 14.23c0-.672.288-1.345.673-1.922.865-1.154 2.212-1.635 5-2.789L10 8.125zm0 .913l-2.837.866c-1.298.48-2.596.865-3.461 1.971-.192.192-.673.77-.673 1.586 0 .145.048.578.24 1.01.481 1.106 1.683 1.779 2.885 1.779.192 0 .625 0 1.058-.192.72-.289 1.49-.962 2.788-2.068V9.038z"/><path id="d" d="M2.644 5c-.24-1.683-.529-1.971-2.067-2.596v-.577C3.317.962 3.894.625 5.337 0l.384.144v2.981C7.741 1.827 10.096.337 12.692.337c1.298 0 2.597.432 3.366 1.586.769 1.106.817 2.404.865 3.702v9.711c.096 1.443.289 1.347 2.452 1.587v.866h-8.173v-.914c2.644-.24 2.404-.096 2.596-2.74V6.346c0-.24-.048-1.202-.288-1.875-.481-1.346-1.78-2.115-3.221-2.115-1.78 0-3.222.961-4.616 1.827v10.48c0 1.202.096 1.635.673 1.875.337.145 1.635.289 2.067.337v.865H0v-.913l1.442-.144c.962-.145 1.106-.481 1.154-2.116L2.644 5z"/><path id="e" d="M13.077 5.048c0-.096.048-.48-.096-.817-.289-1.106-1.539-1.49-2.452-1.78v-.624C12.98 1.25 13.606 1.057 15.96 0l.24.288v26.154c.097 1.298.337 1.298 1.059 1.298h1.586v.77c-1.01.192-2.02.432-2.98.673l-2.452.72-.289-.191v-2.693c-.385.337-.77.673-1.154.962-.673.48-2.404 1.827-4.904 1.827-1.682 0-3.029-.673-3.51-1.01C.24 26.778 0 22.885 0 21.778c0-1.49.288-2.884.913-4.182 1.539-3.27 5.097-5.625 8.799-5.625 1.394 0 2.067.24 3.317.673V5.048h.048zm.144 10.913a4.158 4.158 0 0 0-.48-.769c-.385-.72-1.299-2.163-3.654-2.163-.481.048-1.443.096-2.452.673-1.298.721-3.366 2.644-3.366 6.442 0 3.654 1.827 5.625 3.03 6.443 1.297.913 2.403 1.057 3.028 1.057 1.298 0 2.98-.577 3.558-1.875.192-.336.288-.72.288-1.586V15.96h.048z"/><path id="f" d="M3.125 6.683v1.25c.144 1.682.288 2.5.529 3.269.336 1.058 1.683 4.423 5.433 4.423 2.163 0 3.557-1.154 5.096-2.5l.384.673c-1.25 1.442-1.827 2.02-2.596 2.644-.673.481-2.211 1.539-4.615 1.539-2.885 0-4.568-1.49-5.24-2.26C.143 13.51 0 9.951 0 9.28c0-1.298.337-6.01 4.327-8.221C6.057.144 7.692 0 8.413 0c.625 0 2.308.048 3.75 1.154a5.8 5.8 0 0 1 2.212 3.75c.048.144.096.77.096.961 0 .048 0 .625-.336.77-.145.096-.433.096-.481.096L3.125 6.683zm6.923-1.106c.866-.096 1.25-.24 1.25-1.106 0-1.875-1.49-3.51-3.413-3.51-.481 0-1.25.097-2.164.674-1.538.913-2.02 2.355-2.548 3.942h6.875z"/><path id="g" d="M2.788 14.615c-.096-.769-.144-1.394-.673-1.875-.288-.288-.673-.529-1.442-.961v-.529c2.356-.673 2.789-.865 4.904-1.875l.288.24V24.28c0 .192-.192 1.538.673 1.923.289.096 1.01.192 1.972.288v.866H0l.048-.866c1.01-.096 1.827-.096 2.115-.288.577-.289.625-1.154.625-1.73v-9.857zM4.471 0c1.01 0 1.827.817 1.827 1.827 0 1.058-.961 1.779-1.971 1.779-.337 0-.577-.048-.865-.24-.625-.385-.962-1.25-.77-2.02C2.885.481 3.558 0 4.472 0z"/><path id="h" d="M2.644 5c-.24-1.683-.529-1.971-2.067-2.596v-.577C3.317.962 3.894.625 5.337 0l.384.144v2.981C7.741 1.827 10.096.337 12.692.337c1.298 0 2.597.432 3.366 1.586.769 1.106.817 2.404.865 3.702v9.711c.096 1.443.289 1.347 2.452 1.587v.866h-8.173v-.914c2.644-.24 2.404-.096 2.596-2.74V6.346c0-.24-.048-1.202-.288-1.875-.481-1.346-1.78-2.115-3.221-2.115-1.78 0-3.222.961-4.616 1.827v10.48c0 1.202.096 1.635.673 1.875.337.145 1.635.289 2.067.337v.865H0v-.913l1.442-.144c.962-.145 1.106-.481 1.154-2.116V5h.048z"/><path id="i" d="M10.865 5l-.673-.048c-.096-.337-.192-.721-.288-1.058A4.382 4.382 0 0 0 8.029 1.49c-.866-.48-1.635-.48-2.02-.48-.144 0-.672 0-1.153.192-1.058.385-1.875 1.442-1.875 2.5.048 1.202.865 2.02 1.202 2.26.961.913 2.019 1.25 3.173 1.73.673.289 1.202.53 1.827.914.72.48 2.548 1.779 2.548 4.327 0 .384-.048 1.202-.481 2.067-.625 1.202-2.5 3.125-6.058 3.125-2.019 0-3.173-.48-4.807-1.442L0 12.26l.673-.145c.48 1.683 1.058 3.414 2.74 4.327a4.586 4.586 0 0 0 2.212.577c1.635 0 2.452-.913 2.788-1.49.097-.193.385-.77.385-1.49a4.71 4.71 0 0 0-.192-1.106c-.481-1.25-1.635-1.78-2.789-2.308-.384-.192-1.442-.577-2.452-1.25C2.692 8.99.481 7.596.481 5c0-1.394.625-2.788 1.586-3.606C3.654.048 6.01 0 6.587 0c1.25 0 2.163.192 4.374.913V5h-.096z"/></defs></svg>
